packages/components/src/components/icon/appstore/ic-appstore-add-rounded.svg

<svg width="24" height="24" viewBox="0 0 24 24" fill="none" xmlns="http://www.w3.org/2000/svg">
<rect width="24" height="24" rx="12" fill="#FF444F"/>
<g clip-path="url(#clip0_25769_71750)">
<path fill-rule="evenodd" clip-rule="evenodd" d="M12 8C11.7239 8 11.5 8.22386 11.5 8.5V11.5H8.5C8.22386 11.5 8 11.7239 8 12C8 12.2761 8.22386 12.5 8.5 12.5H11.5V15.5C11.5 15.7761 11.7239 16 12 16C12.2761 16 12.5 15.7761 12.5 15.5V12.5H15.5C15.7761 12.5 16 12.2761 16 12C16 11.7239 15.7761 11.5 15.5 11.5H12.5V8.5C12.5 8.22386 12.2761 8 12 8Z" fill="white"/>
</g>
<defs>
<clipPath id="clip0_25769_71750">
<rect width="8" height="8" fill="white" transform="translate(8 8)"/>
</clipPath>
</defs>
</svg>

<svg xmlns="http://www.w3.org/2000/svg" width="24" height="24" fill="none"><rect width="24" height="24" fill="#FF444F" rx="12"/><g clip-path="url(#a)"><path fill="#fff" fill-rule="evenodd" d="M12 8a.5.5 0 0 0-.5.5v3h-3a.5.5 0 0 0 0 1h3v3a.5.5 0 0 0 1 0v-3h3a.5.5 0 0 0 0-1h-3v-3A.5.5 0 0 0 12 8Z" clip-rule="evenodd"/></g><defs><clipPath id="a"><path fill="#fff" d="M8 8h8v8H8z"/></clipPath></defs></svg>
